; Generated by Kiri:Moto 3.8.5
; Thu Mar 02 2023 01:03:09 GMT+0100 (Central European Standard Time)
; Bed left:0 right:220 top:175 bottom:-175
; Bed type: belt
; Target: Creality.CR-30
; --- process ---
; processName = CR30 PLA FAST
; sliceHeight = 0.2
; sliceShells = 3
; sliceShellOrder = in-out
; sliceLayerStart = last
; sliceFillAngle = 45
; sliceFillOverlap = 0.3
; sliceFillSparse = 0.2
; sliceFillType = hex
; sliceFillRepeat = 3
; sliceAdaptive = false
; sliceMinHeight = 0
; sliceSupportDensity = 0.15
; sliceSupportOffset = 0.4
; sliceSupportGap = 0
; sliceSupportSize = 6
; sliceSupportArea = 0.25
; sliceSupportExtra = 0
; sliceSupportAngle = 1
; sliceSupportNozzle = 0
; sliceSolidMinArea = 5
; sliceBottomLayers = 3
; sliceTopLayers = 3
; firstLayerRate = 10
; firstLayerPrintMult = 1
; firstLayerYOffset = 0
; firstLayerBrim = 5
; firstLayerBeltLead = 5
; firstLayerFanSpeed = 0
; outputLoops = 0
; outputTemp = 215
; outputBedTemp = 70
; outputFanSpeed = 255
; outputFeedrate = 40
; outputFinishrate = 30
; outputSeekrate = 100
; outputShellMult = 1.15
; outputFillMult = 1.15
; outputSparseMult = 1.15
; outputRetractDist = 6
; outputRetractSpeed = 70
; outputRetractWipe = 0
; outputRetractDwell = 0
; outputShortPoly = 50
; outputMinSpeed = 5
; outputCoastDist = 0.3
; outputLayerRetract = false
; zHopDistance = 0
; antiBacklash = 0
; outputOriginCenter = false
; ranges = [{"lo":214,"hi":214,"fields":{"firstLayerRate":10}},{"lo":1,"hi":213,"fields":{"firstLayerBrimIn":0,"firstLayerFanSpeed":0,"firstLayerRate":10,"firstLayerPrintMult":1}}]
; sliceLayerStartX = 0
; sliceLayerStartY = 0
; sliceLineWidth = 0
; sliceFillGrow = 0
; sliceFillWidth = 1
; sliceFillRate = 0
; sliceSolidRate = 0
; sliceSupportSpan = 5
; sliceSupportGrow = 0
; sliceSupportEnable = false
; sliceSupportOutline = true
; firstSliceHeight = 0.25
; firstLayerFillRate = 35
; firstLayerLineMult = 1
; firstLayerNozzleTemp = 0
; firstLayerBedTemp = 0
; firstLayerBrimIn = 0
; firstLayerBrimTrig = 0
; firstLayerBrimGap = 0
; firstLayerBeltBump = 0
; firstLayerFlatten = 0
; outputRaft = false
; outputRaftSpacing = 0.2
; outputDraftShield = false
; outputBrimCount = 2
; outputBrimOffset = 2
; outputPurgeTower = 0
; outputBeltFirst = false
; outputAvoidGaps = true
; outputAlternating = false
; outputInvertX = false
; outputInvertY = false
; sliceDetectThin = off
; arcTolerance = 0
; beltAnchor = 5
; --- startup ---
G28                ; home axes
G1 Y50 F1000       ; lift y axis off belt for heating
M107               ; turn off filament cooling fan
M140 S70           ; set bed temp
M104 S215          ; set hot end temp
M105               ; report temps
M190 S70           ; wait for bed
M105               ; report temps
M109 S215          ; wait for hot end
M82                ; absolute extrusion mode
G90                ; absolute positioning mode
G21                ; use metric values
G92 E0 Z0          ; zero E/Z axes
G1 Y0.15           ; move head to belt
G1 X200 E35 F800   ; extruder purge line
G1 Z0.3            ; shift belt away 0.3mm
G1 X0 E70          ; extruder purge line
G92 Z0 E0          ; reset bed + extruder position
M117 CR-30 Printing...
G1 E-6.0000 F4200 ; e-retract 6
;; --- layer 0 0.2 @ 3.94 ---
M117 0% layer 0 / 426
M106 S255
; feature sparse infill
G1 X105.7230 Y0.1045 Z5.5720 F6000
G1 E0.0000 F4200 ; e-engage 6
G1 X110.7230 E0.1502 F600
G1 E-5.8498 F4200 ; e-retract 6
G1 X118.3230 F6000
G1 E0.1502 F4200 ; e-engage 6
G1 X113.3230 E0.3004 F600
; feature support
G1 X110.7230 Y0.2625 Z5.5720 F6000
G1 X113.3230 E0.3785 F333
G1 Y0.1045 Z5.5720 E0.3833
G1 X110.7230 E0.4614 F600
G1 Y0.2625 Z5.5720 E0.4661 F333
G1 E-5.5339 F4200 ; e-retract 6
;; --- layer 1 0.2 @ 4.14 ---
M117 0% layer 1 / 426
G1 F6000
G1 X105.7230 Y0.1045 Z5.8548
G1 E0.4661 F4200 ; e-engage 6
G1 X110.7230 E0.6163 F600
G1 E-5.3837 F4200 ; e-retract 6
G1 X118.3230 F6000
G1 E0.6163 F4200 ; e-engage 6
G1 X113.3230 E0.7665 F600
; feature support
G1 X110.7230 Y0.6625 Z5.8548 F6000
G1 X113.3230 E0.8446 F338
G1 Y0.1045 Z5.8548 E0.8614
G1 X110.7230 E0.9395 F600
G1 Y0.6625 Z5.8548 E0.9563 F338
G1 E-5.0437 F4200 ; e-retract 6
;; --- layer 2 0.2 @ 4.34 ---
M117 0% layer 2 / 426
G1 F6000
G1 X105.7230 Y0.1045 Z6.1377
G1 E0.9563 F4200 ; e-engage 6
G1 X110.7230 E1.1065 F600
G1 E-4.8935 F4200 ; e-retract 6
G1 X118.3230 F6000
G1 E1.1065 F4200 ; e-engage 6
G1 X113.3230 E1.2567 F600
; feature support
G1 X110.7230 Y1.0625 Z6.1377 F6000
G1 X113.3230 E1.3348 F343
G1 Y0.1045 Z6.1377 E1.3636
G1 X110.7230 E1.4417 F600
G1 Y1.0625 Z6.1377 E1.4704 F343
G1 E-4.5296 F4200 ; e-retract 6
;; --- layer 3 0.2 @ 4.54 ---
M117 0% layer 3 / 426
G1 F6000
G1 X105.7230 Y0.1045 Z6.4205
G1 E1.4704 F4200 ; e-engage 6
G1 X110.7230 E1.6206 F600
G1 E-4.3794 F4200 ; e-retract 6
G1 X118.3230 F6000
G1 E1.6206 F4200 ; e-engage 6
G1 X113.3230 E1.7708 F600
; feature support
G1 X110.7230 Y1.4625 Z6.4205 F6000
G1 X113.3230 E1.8490 F347
G1 Y0.1045 Z6.4205 E1.8897
G1 X110.7230 E1.9679 F600
G1 Y1.4625 Z6.4205 E2.0086 F347
G1 E-3.9914 F4200 ; e-retract 6
;; --- layer 4 0.2 @ 4.74 ---
M117 0% layer 4 / 426
G1 F6000
G1 X105.7230 Y0.1045 Z6.7034
G1 E2.0086 F4200 ; e-engage 6
G1 X110.7230 E2.1589 F600
G1 E-3.8411 F4200 ; e-retract 6
G1 X118.3230 F6000
G1 E2.1589 F4200 ; e-engage 6
G1 X113.3230 E2.3091 F600
; feature support
G1 X110.7230 Y1.8625 Z6.7034 F6000
G1 X113.3230 E2.3872 F352
G1 Y0.1045 Z6.7034 E2.4400
G1 X110.7230 E2.5181 F600
G1 Y1.8625 Z6.7034 E2.5709 F352
G1 E-3.4291 F4200 ; e-retract 6
;; --- layer 5 0.2 @ 4.94 ---
M117 0% layer 5 / 426
G1 F6000
G1 X101.0500 Y0.1045 Z6.9862
G1 E2.5709 F4200 ; e-engage 6
G1 X106.0500 E2.7211 F600
G1 E-3.2789 F4200 ; e-retract 6
G1 X118.3230 F6000
G1 E2.7211 F4200 ; e-engage 6
G1 X113.3230 E2.8713 F600
; feature support
G1 X108.6500 Y0.3505 Z6.9862 F6000
G1 Y0.1045 Z6.9862 E2.8787 F334
G1 X106.0500 E2.9568 F600
G1 Y0.3505 Z6.9862 E2.9642 F334
G1 X108.6500 E3.0423
; feature support
G1 X110.7230 Y0.1045 Z6.9862 F6000
G1 Y2.2625 Z6.9862 E3.1071 F357
G1 X113.3230 E3.1852
G1 Y0.1045 Z6.9862 E3.2501
G1 X110.7230 E3.3282 F600
G1 E-2.6718 F4200 ; e-retract 6
;; --- layer 6 0.2 @ 5.14 ---
M117 0% layer 6 / 426
G1 F6000
; feature support
G1 X108.6500 Y0.1045 Z7.2691
G1 E3.3282 F4200 ; e-engage 6
G1 X106.0500 E3.4063 F600
G1 Y0.7505 Z7.2691 E3.4257 F339
G1 X108.6500 E3.5038
G1 Y0.1045 Z7.2691 E3.5232
; feature support
G1 X110.7230 F6000
G1 Y2.6625 Z7.2691 E3.6000 F362
G1 X113.3230 E3.6781
G1 Y0.1045 Z7.2691 E3.7550
G1 X110.7230 E3.8331 F600
G1 E-2.1669 F4200 ; e-retract 6
; feature sparse infill
G1 X118.6524 Y0.1045 Z7.2691 F6000
G1 E3.8331 F4200 ; e-engage 6
G1 X101.3476 E4.3529 F600
G1 E-1.6471 F4200 ; e-retract 6
;; --- layer 7 0.2 @ 5.34 ---
M117 0% layer 7 / 426
G1 F6000
G1 X96.3476 Y0.1045 Z7.5519
G1 E4.3529 F4200 ; e-engage 6
G1 X101.3476 E4.5031 F600
G1 E-1.4969 F4200 ; e-retract 6
G1 X123.6524 F6000
G1 E4.5031 F4200 ; e-engage 6
G1 X118.6524 E4.6533 F600
; feature sparse infill
G1 X101.3476 E5.1732 F2400
G1 X118.6524 E5.6930 F600
G1 E-0.3070 F4200 ; e-retract 6
; feature support
G1 X108.6500 Y0.1045 Z7.5519 F6000
G1 E5.6930 F4200 ; e-engage 6
G1 X106.0500 E5.7712 F600
G1 Y1.1505 Z7.5519 E5.8026 F344
G1 X108.6500 E5.8807
G1 Y0.1045 Z7.5519 E5.9121
; feature support
G1 X110.7230 F6000
G1 Y3.0625 Z7.5519 E6.0010 F367
G1 X113.3230 E6.0791
G1 Y0.1045 Z7.5519 E6.1679
G1 X110.7230 E6.2460 F600
G1 E0.2460 F4200 ; e-retract 6
;; --- layer 8 0.2 @ 5.54 ---
M117 0% layer 8 / 426
G1 F6000
; feature support
G1 X108.6500 Y0.1045 Z7.8347
G1 E6.2460 F4200 ; e-engage 6
G1 X106.0500 E6.3241 F600
G1 Y1.5505 Z7.8347 E6.3676 F349
G1 X108.6500 E6.4457
G1 Y0.1045 Z7.8347 E6.4891
; feature support
G1 X110.7230 F6000
G1 Y3.4625 Z7.8347 E6.5900 F371
G1 X113.3230 E6.6681
G1 Y0.1045 Z7.8347 E6.7690
G1 X110.7230 E6.8471 F600
G1 E0.8471 F4200 ; e-retract 6
; feature sparse infill
G1 X118.6524 Y0.1045 Z7.8347 F6000
G1 E6.8471 F4200 ; e-engage 6
G1 X101.3476 E7.3669 F600
G1 E1.3669 F4200 ; e-retract 6
;; --- layer 9 0.2 @ 5.74 ---
M117 0% layer 9 / 426
G1 F6000
G1 X96.3476 Y0.1045 Z8.1176
G1 E7.3669 F4200 ; e-engage 6
G1 X101.3476 E7.5172 F600
G1 E1.5172 F4200 ; e-retract 6
G1 X123.6524 F6000
G1 E7.5172 F4200 ; e-engage 6
G1 X118.6524 E7.6674 F600
; feature sparse infill
G1 X101.3476 E8.1872 F2400
G1 X118.6524 E8.7071 F600
G1 E2.7071 F4200 ; e-retract 6
; feature support
G1 X108.6500 Y0.1045 Z8.1176 F6000
G1 E8.7071 F4200 ; e-engage 6
G1 X106.0500 E8.7852 F600
G1 Y1.9505 Z8.1176 E8.8406 F353
G1 X108.6500 E8.9187
G1 Y0.1045 Z8.1176 E8.9742
; feature support
G1 X110.7230 F6000
G1 Y3.8625 Z8.1176 E9.0871 F376
G1 X113.3230 E9.1652
G1 Y0.1045 Z8.1176 E9.2781
G1 X110.7230 E9.3562 F600
G1 E3.3562 F4200 ; e-retract 6
;; --- layer 10 0.2 @ 5.94 ---
M117 0% layer 10 / 426
G1 F6000
; feature support
G1 X108.6500 Y0.1045 Z8.4004
G1 E9.3562 F4200 ; e-engage 6
G1 X106.0500 E9.4343 F600
G1 Y2.3506 Z8.4004 E9.5018 F358
G1 X108.6500 E9.5799
G1 Y0.1045 Z8.4004 E9.6473
; feature support
G1 X110.7230 Y0.4205 Z8.4004 F6000
G1 Y4.2625 Z8.4004 E9.7628 F377
G1 X113.3230 E9.8409
G1 Y0.4205 Z8.4004 E9.9563
G1 X110.7230 E10.0344
G1 E4.0344 F4200 ; e-retract 6
; feature sparse infill
G1 X118.6524 Y0.1045 Z8.4004 F6000
G1 E10.0344 F4200 ; e-engage 6
G1 X101.3476 E10.5542 F600
G1 E4.5542 F4200 ; e-retract 6
;; --- layer 11 0.2 @ 6.14 ---
M117 0% layer 11 / 426
G1 F6000
G1 X96.3476 Y0.1045 Z8.6833
G1 E10.5542 F4200 ; e-engage 6
G1 X101.3476 E10.7044 F600
G1 E4.7044 F4200 ; e-retract 6
G1 X123.6524 F6000
G1 E10.7044 F4200 ; e-engage 6
G1 X118.6524 E10.8546 F600
; feature sparse infill
G1 X101.3476 E11.3745 F2400
G1 X118.6524 E11.8943 F600
G1 E5.8943 F4200 ; e-retract 6
; feature support
G1 X108.6500 Y0.1045 Z8.6833 F6000
G1 E11.8943 F4200 ; e-engage 6
G1 X106.0500 E11.9724 F600
G1 Y2.7506 Z8.6833 E12.0519 F363
G1 X108.6500 E12.1300
G1 Y0.1045 Z8.6833 E12.2095
; feature support
G1 X110.7230 Y0.8204 Z8.6833 F6000
G1 Y4.6625 Z8.6833 E12.3250 F377
G1 X113.3230 E12.4031
G1 Y0.8204 Z8.6833 E12.5185
G1 X110.7230 E12.5966
G1 E6.5966 F4200 ; e-retract 6
;; --- layer 12 0.2 @ 6.34 ---
M117 0% layer 12 / 426
G1 F6000
; feature support
G1 X108.6500 Y0.1045 Z8.9661
G1 E12.5966 F4200 ; e-engage 6
G1 X106.0500 E12.6747 F600
G1 Y3.1506 Z8.9661 E12.7662 F368
G1 X108.6500 E12.8443
G1 Y0.1045 Z8.9661 E12.9358
; feature support
G1 X110.7230 Y1.2204 Z8.9661 F6000
G1 Y5.0625 Z8.9661 E13.0512 F377
G1 X113.3230 E13.1293
G1 Y1.2204 Z8.9661 E13.2448
G1 X110.7230 E13.3229
G1 E7.3229 F4200 ; e-retract 6
; feature sparse infill
G1 X118.6524 Y0.1045 Z8.9661 F6000
G1 E13.3229 F4200 ; e-engage 6
G1 X101.3476 E13.8427 F600
G1 E7.8427 F4200 ; e-retract 6
;; --- layer 13 0.2 @ 6.54 ---
M117 0% layer 13 / 426
G1 F6000
G1 X96.3476 Y0.1045 Z9.2490
G1 E13.8427 F4200 ; e-engage 6
G1 X101.3476 E13.9929 F600
G1 E7.9929 F4200 ; e-retract 6
G1 X123.6524 F6000
G1 E13.9929 F4200 ; e-engage 6
G1 X118.6524 E14.1431 F600
; feature sparse infill
G1 X101.3476 E14.6630 F2400
G1 X118.6524 E15.1828 F600
G1 E9.1828 F4200 ; e-retract 6
; feature support
G1 X108.6500 Y0.1045 Z9.2490 F6000
G1 E15.1828 F4200 ; e-engage 6
G1 X106.0500 E15.2609 F600
G1 Y3.5506 Z9.2490 E15.3644 F373
G1 X108.6500 E15.4425
G1 Y0.1045 Z9.2490 E15.5461
; feature support
G1 X110.7230 Y1.6204 Z9.2490 F6000
G1 Y5.4625 Z9.2490 E15.6615 F377
G1 X113.3230 E15.7396
G1 Y1.6204 Z9.2490 E15.8550
G1 X110.7230 E15.9331
G1 E9.9331 F4200 ; e-retract 6
;; --- layer 14 0.2 @ 6.74 ---
M117 0% layer 14 / 426
G1 F6000
; feature support
G1 X102.8540 Y0.1765 Z9.5318
G1 E15.9331 F4200 ; e-engage 6
G1 Y0.1045 Z9.5318 E15.9353 F332
G1 X100.2540 E16.0134 F600
G1 Y0.1765 Z9.5318 E16.0156 F332
G1 X102.8540 E16.0937
; feature support
G1 X106.0500 Y0.1085 Z9.5318 F6000
G1 Y3.9506 Z9.5318 E16.2091 F377
G1 X108.6500 E16.2872
G1 Y0.1085 Z9.5318 E16.4026
G1 X106.0500 E16.4807 F600
; feature support
G1 X110.7230 Y2.0204 Z9.5318 F6000
G1 Y5.8625 Z9.5318 E16.5961 F377
G1 X113.3230 E16.6742
G1 Y2.0204 Z9.5318 E16.7897
M117 1% layer 14 / 426
G1 X110.7230 E16.8678
G1 E10.8678 F4200 ; e-retract 6
; feature sparse infill
G1 X118.6524 Y0.1045 Z9.5318 F6000
G1 E16.8678 F4200 ; e-engage 6
G1 X101.3476 E17.3876 F600
G1 E11.3876 F4200 ; e-retract 6
;; --- layer 15 0.2 @ 6.94 ---
M117 1% layer 15 / 426
G1 F6000
G1 X95.2540 Y0.1045 Z9.8146
G1 E17.3876 F4200 ; e-engage 6
G1 X100.2540 E17.5378 F600
G1 E11.5378 F4200 ; e-retract 6
G1 X123.7720 F6000
G1 E17.5378 F4200 ; e-engage 6
G1 X118.7720 E17.6880 F600
; feature sparse infill
G1 X101.3476 E18.2115 F2400
G1 X118.6524 E18.7313 F600
G1 E12.7313 F4200 ; e-retract 6
; feature support
G1 X102.8540 Y0.1045 Z9.8146 F6000
G1 E18.7313 F4200 ; e-engage 6
G1 X100.2540 E18.8094 F600
G1 Y0.5765 Z9.8146 E18.8236 F337
G1 X102.8540 E18.9017
G1 Y0.1045 Z9.8146 E18.9159
; feature support
G1 X106.0500 Y0.5085 Z9.8146 F6000
G1 Y4.3506 Z9.8146 E19.0313 F377
G1 X108.6500 E19.1094
G1 Y0.5085 Z9.8146 E19.2248
G1 X106.0500 E19.3029
; feature support
G1 X110.7230 Y2.4204 Z9.8146 F6000
G1 Y6.2625 Z9.8146 E19.4184 F377
G1 X113.3230 E19.4965
G1 Y2.4204 Z9.8146 E19.6119
G1 X110.7230 E19.6900
; feature support
G1 X116.1720 Y0.3325 Z9.8146 F6000
G1 X118.7720 E19.7681 F334
G1 Y0.1045 Z9.8146 E19.7749
G1 X116.1720 E19.8531 F600
G1 Y0.3325 Z9.8146 E19.8599 F334
G1 E13.8599 F4200 ; e-retract 6
;; --- layer 16 0.2 @ 7.14 ---
M117 1% layer 16 / 426
G1 F6000
; feature support
G1 X102.8540 Y0.1045 Z10.0975
G1 E19.8599 F4200 ; e-engage 6
G1 X100.2540 E19.9380 F600
G1 Y0.9765 Z10.0975 E19.9642 F342
G1 X102.8540 E20.0423
G1 Y0.1045 Z10.0975 E20.0685
; feature support
G1 X106.0500 Y0.9085 Z10.0975 F6000
G1 Y4.7506 Z10.0975 E20.1839 F377
G1 X108.6500 E20.2620
G1 Y0.9085 Z10.0975 E20.3775
G1 X106.0500 E20.4556
; feature support
G1 X110.7230 Y2.8204 Z10.0975 F6000
G1 Y6.6625 Z10.0975 E20.5710 F377
G1 X113.3230 E20.6491
G1 Y2.8204 Z10.0975 E20.7645
G1 X110.7230 E20.8426
; feature support
G1 X116.1720 Y0.7325 Z10.0975 F6000
G1 X118.7720 E20.9207 F339
G1 Y0.1045 Z10.0975 E20.9396
G1 X116.1720 E21.0177 F600
G1 Y0.7325 Z10.0975 E21.0366 F339
G1 E15.0366 F4200 ; e-retract 6
; feature sparse infill
G1 X118.6524 Y0.1045 Z10.0975 F6000
G1 E21.0366 F4200 ; e-engage 6
G1 X101.3476 E21.5564 F600
G1 E15.5564 F4200 ; e-retract 6
;; --- layer 17 0.2 @ 7.34 ---
M117 1% layer 17 / 426
G1 F6000
G1 X95.2540 Y0.1045 Z10.3803
G1 E21.5564 F4200 ; e-engage 6
G1 X100.2540 E21.7066 F600
G1 E15.7066 F4200 ; e-retract 6
G1 X123.7720 F6000
G1 E21.7066 F4200 ; e-engage 6
G1 X118.7720 E21.8568 F600
; feature sparse infill
G1 X101.3476 E22.3803 F2400
G1 X118.6524 E22.9001 F600
G1 E16.9001 F4200 ; e-retract 6
; feature support
G1 X102.8540 Y0.1045 Z10.3803 F6000
G1 E22.9001 F4200 ; e-engage 6
G1 X100.2540 E22.9782 F600
G1 Y1.3765 Z10.3803 E23.0164 F346
G1 X102.8540 E23.0945
G1 Y0.1045 Z10.3803 E23.1327
; feature support
G1 X106.0500 Y1.3085 Z10.3803 F6000
G1 Y5.1507 Z10.3803 E23.2482 F377
G1 X108.6500 E23.3263
G1 Y1.3085 Z10.3803 E23.4417
G1 X106.0500 E23.5198
; feature support
G1 X110.7230 Y3.2204 Z10.3803 F6000
G1 Y7.0625 Z10.3803 E23.6352 F377
G1 X113.3230 E23.7133
G1 Y3.2204 Z10.3803 E23.8287
G1 X110.7230 E23.9069
; feature support
G1 X116.1720 Y1.1325 Z10.3803 F6000
G1 X118.7720 E23.9850 F344
G1 Y0.1045 Z10.3803 E24.0158
G1 X116.1720 E24.0939 F600
G1 Y1.1325 Z10.3803 E24.1248 F344
G1 E18.1248 F4200 ; e-retract 6
;; --- layer 18 0.2 @ 7.54 ---
M117 1% layer 18 / 426
G1 F6000
; feature support
G1 X102.8540 Y1.7765 Z10.6632
G1 E24.1248 F4200 ; e-engage 6
G1 Y0.1045 Z10.6632 E24.1751 F351
G1 X100.2540 E24.2532 F600
G1 Y1.7765 Z10.6632 E24.3034 F351
G1 X102.8540 E24.3815
; feature support
G1 X106.0500 Y1.7085 Z10.6632 F6000
G1 Y5.5507 Z10.6632 E24.4969 F377
G1 X108.6500 E24.5750
G1 Y1.7085 Z10.6632 E24.6905
G1 X106.0500 E24.7686
; feature support
G1 X110.7230 Y3.6203 Z10.6632 F6000
G1 Y7.4625 Z10.6632 E24.8840 F377
G1 X113.3230 E24.9621
G1 Y3.6203 Z10.6632 E25.0775
G1 X110.7230 E25.1556
; feature support
G1 X116.1720 Y1.5325 Z10.6632 F6000
G1 X118.7720 E25.2337 F348
G1 Y0.1045 Z10.6632 E25.2766
G1 X116.1720 E25.3547 F600
G1 Y1.5325 Z10.6632 E25.3976 F348
G1 E19.3976 F4200 ; e-retract 6
